%
O1001
(CHIP-WARDEN-START)
(PROJECT M S)
(PART 1001)
(POSTED 2025-10-29-1912)
(OPERATIONS 20)
(TOOL-COUNT 7)
(MACHINE PUMA)
(SETUP F 2)
(CHIP-WARDEN-END)

G0 G18 G20 G40 G54 G80 G99 M110
M24

(FACE 2)
G0 G28 G53 B0. (SUB SPINDLE RETURN)
G28 U0. V0.
G28 W0.
M90
G54
G99 G18 M34
G50 S4000
T0101
M8
G97 S441 M3 P11
G0 Z0.0466
X1.04 Y0.
G96 S120 M3 P11
G1 X1.1131 F0.005
X1. Z-0.01
X-0.0312
X0.0819 Z0.0466
G0 X1.04
G97 S441 M3 P11
M9
G28 U0. V0.
G28 W0.
M110
M1

(DRILL2 2)
G0 G28 G53 B0. (SUB SPINDLE RETURN)
G28 U0. V0.
G28 W0.
M90
G54
G99 G18 M34
T0707
M8
G97 S970 M3 P11
G0 Z0.2
X0. Y0.
G80
G0 Z0.1
G83 Z-2.2589 R-0.05 F0.0028
G80
G0 Z0.2
M9
G28 U0. V0.
G28 W0.
M110
M1

(PROFILE ROUGHING 4)
G0 G28 G53 B0. (SUB SPINDLE RETURN)
G28 U0. V0.
G28 W0.
M90
G54
G99 G18 M34
G50 S4000
T0817
M8
G97 S689 M3 P11
G0 Z0.05
X0.665 Y0.
G96 S120 M3 P11
Z0.0025
X0.7285
G1 Z-0.158 F0.005
X0.665 Z-0.1262
G0 Z0.0025
X0.772
G1 Z-0.158
X0.692 Z-0.118
G0 Z0.0025
X0.8155
G1 Z-0.1509
X0.7355 Z-0.1109
G0 Z0.0025
X0.859
G1 Z-0.1158
X0.779 Z-0.0758
G0 Z0.0025
X0.849
G1 X0.9025
Z-0.0933
X0.8225 Z-0.0533
G0 X0.665
Z0.05
G97 S689 M3 P11

(PROFILE ROUGHING 7)
G97 S666 M3 P11
G0 Z0.05
X0.6887 Y0.
G96 S120 M3 P11
Z-0.1155
X0.7587
G1 Z-1.545 F0.005
X0.6887 Z-1.51
G0 Z0.05
X0.6987
Z-1.545
G1 X0.72
Z-1.5756
X0.6887 Z-1.56
G0 Z0.05
X0.7843
Z-0.1155
G1 Z-1.545
X0.7043 Z-1.505
G0 Z0.05
X0.81
Z-0.1155
G1 Z-1.545
X0.73 Z-1.505
G0 Z0.05
X0.8261
Z-0.1155
G1 Z-0.1378
X0.7461 Z-0.0978
G0 X0.6887
Z0.05
G97 S666 M3 P11
M9
G28 U0. V0.
G28 W0.
M110
M1

(DRILL2 5)
G0 G28 G53 B0. (SUB SPINDLE RETURN)
G28 U0. V0.
G28 W0.
M90
G54
G99 G18 M34
T0707
M8
G97 S970 M3 P11
G0 Z0.2
X0. Y0.
G0 Z0.1
G83 Z-2.2339 R-0.05 F0.0206
G80
G0 Z0.2
M9
G28 U0. V0.
G28 W0.
M110
M1

(PROFILE FINISHING8 2)
G0 G28 G53 B0. (SUB SPINDLE RETURN)
G28 U0. V0.
G28 W0.
M90
G54
G99 G18 M34
G50 S4000
T2424
M8
G97 S895 M3 P11
G0 Z0.05
X0.64 Y0.
G96 S150 M3 P11
Z-0.0136
X0.7082
G1 X0.84 F0.03
Z-0.0636 F0.004
Z-1.5444 F0.003
X0.8179 Z-1.5333 F0.03
X0.65
Z-1.56
X0.75 F0.004
X0.84 F0.003
Z-1.5287
X0.8179 Z-1.5177 F0.03
Z-0.0136
X0.84
Z-0.0636 F0.004
Z-1.5444 F0.003
X0.8179 Z-1.5333 F0.03
X0.65
Z-1.56
X0.75 F0.004
X0.84 F0.003
Z-1.5287
X0.8179 Z-1.5177 F0.03
X0.64
Z-1.5112
G0 Z0.05
G97 S895 M3 P11

(CHAMFER1 2)
G97 S694 M3 P11
G0 Z0.05
X0.66 Y0.
G96 S120 M3 P11
Z-1.5317
X0.8257
G1 Z-1.5363 F0.004
X0.7026 Z-1.5979
G0 X0.66
Z0.05
G97 S694 M3 P11
M9
G28 U0. V0.
G28 W0.
M110
M1

(PROFILE FINISHING8)
G0 G28 G53 B0. (SUB SPINDLE RETURN)
G28 U0. V0.
G28 W0.
M90
G54
G99 G18 M34
G50 S4000
T1010
M8
G97 S1074 M3 P11
G0 Z0.05
X0.64 Y0.
G96 S180 M3 P11
Z0.0244
X0.8007
G1 X0.9325 F0.004
Z-0.0256
Z-0.0976
X0.9322 Z-0.0987
X0.9314 Z-0.0997
X0.9301 Z-0.1006
X0.8584 Z-0.1378
X0.8352 Z-0.1665
X0.6676
G0 X0.64
Z0.05
G97 S1074 M3 P11

(CHAMFER1)
G97 S1042 M3 P11
G0 Z0.05
X0.66 Y0.
G96 S180 M3 P11
Z0.0041
X0.9799
G1 Z-0.0004 F0.004
X0.9134 Z-0.0337
G0 X0.66
Z0.05
G97 S1042 M3 P11
M9
G28 U0. V0.
G28 W0.
M110
M1

(7/8-28)
G0 G28 G53 B0. (SUB SPINDLE RETURN)
G28 U0. V0.
G28 W0.
M90
G54
G99 G18 M34
T1212
M8
G97 S500 M3 P11
G0 Z0.05
X0.636 Y0.
Z0.0306
X0.85
G32 Z-1.295 F0.035714
X0.84 Z-1.3 F0.035714
G0 X0.82
Z0.0306
X0.8577
G32 Z-1.2911 F0.035714
X0.84 Z-1.3 F0.035714
G0 X0.82
Z0.0306
X0.863
G32 Z-1.2885 F0.035714
X0.84 Z-1.3 F0.035714
G0 X0.82
Z0.0306
X0.8673
G32 Z-1.2864 F0.035714
X0.84 Z-1.3 F0.035714
G0 X0.82
Z0.0306
X0.8709
G32 Z-1.2845 F0.035714
X0.84 Z-1.3 F0.035714
G0 X0.82
Z0.0306
X0.8742
G32 Z-1.2829 F0.035714
X0.84 Z-1.3 F0.035714
G0 X0.82
Z0.0306
X0.8772
G32 Z-1.2814 F0.035714
X0.84 Z-1.3 F0.035714
G0 X0.82
Z0.0306
X0.88
G32 Z-1.28 F0.035714
X0.84 Z-1.3 F0.035714
G0 X0.82
Z0.0306
X0.88
G32 Z-1.28 F0.035714
X0.84 Z-1.3 F0.035714
G0 X0.636
Z0.05
M9
G28 U0. V0.
G28 W0.
M110
M1

(PROFILE FINISHING 3)
G0 G28 G53 B0. (SUB SPINDLE RETURN)
G28 U0. V0.
G28 W0.
M90
G54
G98 G18 M34
T0101
M8
G97 S500 M3 P11
G0 Z-1.9493
X1.2 Y0.
X1.1621
G1 X1.0398 F120.
X1.03 Z-1.8995
Z0.3744
X1.19
G0 X1.2

(CHAMFER2)
G99 M34
G50 S4000
G97 S1061 M3 P11
G0 Z0.0041
X1.08 Y0.
G96 S300 M3 P11
X0.9426
G1 Z-0.0004 F0.005
X1.0091 Z-0.0337
G0 X1.08
G97 S1061 M3 P11

(FACE6)
G50 S2500
G97 S1071 M3 P11
G0 Z0.0466
X1.07 Y0.
G96 S300 M3 P11
X1.04
G1 X1.1231 F0.005
X1.01 Z-0.01
X0.8812
X0.9944 Z0.0466
G0 X1.07
G97 S1071 M3 P11

(PROFILE FINISHING 4)
G50 S4000
G97 S955 M3 P11
G0 Z0.0244
X1.2 Y0.
G96 S300 M3 P11
X1.1218
G1 X0.99 F0.005
Z-0.0256
Z-1.6845
X1.15
G0 X1.2
G97 S955 M3 P11
M108

(SUBSPINDLE GRAB 4)
G28 G53 B0. (SUB SPINDLE RETURN)
G28 U0. V0.
G28 W0.
M5 P11
M9
M1
M35
M90
G98 G18 M34
M134
M131 (INTERLOCK BYPASS)
M169 (UNCLAMP SUB CHUCK)
G4 U0.1
G50 S2500
G96 S120 M213 P11 (PHASE SYNCHRONIZATION)
M14 (CLEAN OUT CHIPS)
M114
G4 U5.5
M15
M115
G0 B0.
G1 B-1.51 F20.
M168 (CLAMP SUB CHUCK)
M31 (INTERLOCK BYPASS)
G4 U0.1

(SUBSPINDLE RETURN8 3)
M131
M69 (UNCLAMP MAIN CHUCK)
G4 U1
B0.285 F40. (BAR PULL)
M68 (CLAMP MAIN CHUCK)
G4 U1
M110
G0 G28 U0. V0.
G28 W0.
M110
M1

(PART 5)
G54
G99
T0303
M8
G0 Z0.
X1.08 Y0.
X1.04
G1 X0.6533 F0.002
G0 X1.04
X1.08
G350 (CONFIRM CUTOFF)
G4 U0.5
M205 P11
M9
G28 U0. V0.
G28 W0.
M110
M1

(FACE  CHAMFER)
G0 G28 G53 B0. (SUB SPINDLE RETURN)
G28 U0. V0.
G28 W0.
M5 P11
M190
G55
G99 G18 M134
G50 S4000
T1616
M8
G97 S578 M3 P13
G0 Z0.0306
X1.19 Y0.
G96 S180 M3 P13
X1.15
G1 X0.99 F0.005
G3 X0.9287 Z0. I-0.0306 K0. F0.003
G1 X0.8187
Z-0.08 F0.005
G0 X1.19
G97 S578 M3 P13
M108
M5 P13
M9
G28 U0. V0.
G28 W0.
M110
M1

(PROFILE ROUGHING 5)
G0 G28 G53 B0. (SUB SPINDLE RETURN)
G28 U0. V0.
G28 W0.
M190
G55
G99 G18 M134
G50 S4000
T1312
M8
G97 S982 M4 P13
G0 Z-0.228
X0.7 Y0.
G96 S180 M4 P13
Z-0.01
X0.74
G1 Z0.0596 F0.004
G3 X0.7221 Z0.0721 I0.0196 K0.0235
G1 X0.7015 Z0.0989
X0.7
G0 Z-0.01
X0.78
G1 Z0.0475
X0.7484 Z0.0567
X0.7441 Z0.0581
X0.74 Z0.0596
X0.7 Z0.0396
G0 Z-0.01
X0.82
G1 Z0.0358
X0.78 Z0.0475
X0.7 Z0.0075
G0 Z-0.01
X0.86
G1 Z0.0241
X0.82 Z0.0358
X0.74 Z-0.0042
G0 Z-0.01
X0.9
G1 Z0.0125
X0.86 Z0.0241
X0.78 Z-0.0159
G0 Z-0.01
X0.9296
G1 Z0.0038
X0.9292 Z0.0039
X0.9285 Z0.0041
X0.9 Z0.0125
X0.82 Z-0.0275
G0 Z-0.01
X0.9592
G1 Z0.
G3 X0.9296 Z0.0038 I0. K0.0306
G1 X0.8496 Z-0.0362
G0 X0.7
Z-0.228
G97 S982 M4 P13

(PROFILE FINISHING10)
G97 S982 M4 P13
G0 Z-0.228
X0.7 Y0.
G96 S180 M4 P13
Z-0.0125
G1 Z-0.0001 F0.004
X1.0912
X0.9912 Z0.
G3 X0.9604 Z0.0042 I0. K0.0306
G1 X0.7804 Z0.0567
G3 X0.75 Z0.0831 I0.0154 K0.0265
G1 Z0.1345
X0.7
Z-0.0125
G0 Z-0.228
G97 S982 M4 P13
M109
(EJECT WITH PARTS EJECTOR)
M5
M9
G0 G28 G53 B0. (SUB SPINDLE RETURN)
G28 U0. V0.
G28 W0.
G65 P8003
M1
(RESTART)
M99
(SET PARTS COUNT)
#3901=0;
#3902=26;
G65 P8004 A0.750 B0.010
M30;
(SET 2" WORK OFFSETS)
G10 L2 P1 Z8.5886 B-14.2400;
G10 L2 P2 Z22.6716;
M30;
M5 P13
M9

M25
G28 U0. V0.
G28 W0.
G0 G28 G53 B0. (SUB SPINDLE RETURN)
M134
G54

M111
M30
%
